X: 10336
M: 2/4
L: 1/16
K: G
dc |\
|: dc |\
|: Bc |\
d2d2d2g2 | d2d2d2g2 | d2d2 edcB | dcBc A2Bc |\
d2d2d2g2 | d2d2d2g2 | edcB dcBA | G2[B2G2]G2 :|


